cssgg/backspace.svg

<svg
  width="24"
  height="24"
  viewBox="0 0 24 24"
  fill="none"
  xmlns="http://www.w3.org/2000/svg"
>
  <path
    d="M17.7427 8.46448L19.1569 9.87869L17.0356 12L19.157 14.1214L17.7428 15.5356L15.6214 13.4142L13.5 15.5355L12.0858 14.1213L14.2072 12L12.0859 9.87878L13.5002 8.46457L15.6214 10.5858L17.7427 8.46448Z"
    fill="currentColor"
  />
  <path
    fill-rule="evenodd"
    clip-rule="evenodd"
    d="M8.58579 19L2.29289 12.7071C1.90237 12.3166 1.90237 11.6834 2.29289 11.2929L8.58579 5H22.5857V19H8.58579ZM9.41421 7L4.41421 12L9.41421 17H20.5857V7H9.41421Z"
    fill="currentColor"
  />
</svg>

<svg viewBox="0 0 24 24" xmlns="http://www.w3.org/2000/svg"><g><path d="M17.74 8.46l1.41 1.41 -2.13 2.12 2.12 2.12 -1.42 1.41 -2.13-2.13 -2.13 2.12 -1.42-1.42 2.12-2.13 -2.13-2.13 1.41-1.42 2.12 2.12 2.12-2.13Z"/><path fill-rule="evenodd" d="M8.58 19l-6.3-6.3c-.4-.4-.4-1.03 0-1.42l6.29-6.3h13.99v14h-14ZM9.4 7l-5 5 5 5h11.17V7H9.39Z"/></g></svg>
